Newaita-dark/mimetypes/128/image-x-xcf.svg

<?xml version="1.0" encoding="UTF-8"?>
<svg xmlns="http://www.w3.org/2000/svg" xmlns:xlink="http://www.w3.org/1999/xlink" width="128pt" height="128pt" viewBox="0 0 128 128" version="1.1">
<defs>
<linearGradient id="linear0" gradientUnits="userSpaceOnUse" x1="254" y1="233.5" x2="254" y2="254.666672" gradientTransform="matrix(0.250024,0,0,0.250024,2.646081,53.75514)">
<stop offset="0" style="stop-color:rgb(0%,0%,0%);stop-opacity:0.27451;"/>
<stop offset="1" style="stop-color:rgb(0%,0%,0%);stop-opacity:0;"/>
</linearGradient>
<radialGradient id="radial0" gradientUnits="userSpaceOnUse" cx="450.908936" cy="189.579361" fx="450.908936" fy="189.579361" r="21.166656" gradientTransform="matrix(0.000000696681,-0.31253,-0.562554,-0.000000406154,197.938277,254.38133)">
<stop offset="0" style="stop-color:rgb(0%,0%,0%);stop-opacity:0.313725;"/>
<stop offset="0.222222" style="stop-color:rgb(0%,0%,0%);stop-opacity:0.27451;"/>
<stop offset="1" style="stop-color:rgb(0%,0%,0%);stop-opacity:0;"/>
</radialGradient>
<radialGradient id="radial1" gradientUnits="userSpaceOnUse" cx="450.908936" cy="189.579361" fx="450.908936" fy="189.579361" r="21.166656" gradientTransform="matrix(-0.000000696681,0.31253,0.562554,0.000000406154,-73.572195,-30.109915)">
<stop offset="0" style="stop-color:rgb(0%,0%,0%);stop-opacity:0.313725;"/>
<stop offset="0.222222" style="stop-color:rgb(0%,0%,0%);stop-opacity:0.27451;"/>
<stop offset="1" style="stop-color:rgb(0%,0%,0%);stop-opacity:0;"/>
</radialGradient>
<radialGradient id="radial2" gradientUnits="userSpaceOnUse" cx="450.908936" cy="189.579361" fx="450.908936" fy="189.579361" r="21.166656" gradientTransform="matrix(-0.000000696681,-0.31253,0.562554,-0.000000406154,-73.572195,254.38133)">
<stop offset="0" style="stop-color:rgb(0%,0%,0%);stop-opacity:0.313725;"/>
<stop offset="0.222222" style="stop-color:rgb(0%,0%,0%);stop-opacity:0.27451;"/>
<stop offset="1" style="stop-color:rgb(0%,0%,0%);stop-opacity:0;"/>
</radialGradient>
<radialGradient id="radial3" gradientUnits="userSpaceOnUse" cx="450.908936" cy="189.579361" fx="450.908936" fy="189.579361" r="21.166656" gradientTransform="matrix(0.000000696681,0.31253,-0.562554,0.000000406154,197.938269,-30.109917)">
<stop offset="0" style="stop-color:rgb(0%,0%,0%);stop-opacity:0.313725;"/>
<stop offset="0.222222" style="stop-color:rgb(0%,0%,0%);stop-opacity:0.27451;"/>
<stop offset="1" style="stop-color:rgb(0%,0%,0%);stop-opacity:0;"/>
</radialGradient>
<linearGradient id="linear1" gradientUnits="userSpaceOnUse" x1="940" y1="1695.118164" x2="940" y2="175.118118" gradientTransform="matrix(0.0661521,0,0,0.0661521,0,0)">
<stop offset="0" style="stop-color:rgb(73.72549%,66.666667%,64.313725%);stop-opacity:1;"/>
<stop offset="1" style="stop-color:rgb(84.313725%,80%,78.431373%);stop-opacity:1;"/>
</linearGradient>
<linearGradient id="linear2" gradientUnits="userSpaceOnUse" x1="249.189423" y1="233.5" x2="249.189423" y2="254.666687" gradientTransform="matrix(0.119577,0,0,0.437541,60.169693,-65.443642)">
<stop offset="0" style="stop-color:rgb(0%,0%,0%);stop-opacity:0.27451;"/>
<stop offset="1" style="stop-color:rgb(0%,0%,0%);stop-opacity:0;"/>
</linearGradient>
<linearGradient id="linear3" gradientUnits="userSpaceOnUse" x1="338.666656" y1="233.5" x2="338.666656" y2="-168.666672" gradientTransform="matrix(0.250024,0,0,0.250024,0,53.755133)">
<stop offset="0" style="stop-color:rgb(55.294118%,43.137255%,38.823529%);stop-opacity:1;"/>
<stop offset="1" style="stop-color:rgb(63.137255%,53.333333%,49.803922%);stop-opacity:1;"/>
</linearGradient>
<linearGradient id="linear4" gradientUnits="userSpaceOnUse" x1="940" y1="1695.118164" x2="940" y2="175.118118" >
<stop offset="0" style="stop-color:rgb(55.294118%,43.137255%,38.823529%);stop-opacity:1;"/>
<stop offset="1" style="stop-color:rgb(63.137255%,53.333333%,49.803922%);stop-opacity:1;"/>
</linearGradient>
</defs>
<g id="surface1">
<path style=" stroke:none;fill-rule:nonzero;fill:url(#linear0);" d="M 31.753906 112.136719 L 92.613281 112.136719 L 92.613281 117.429688 L 31.753906 117.429688 Z M 31.753906 112.136719 "/>
<path style=" stroke:none;fill-rule:nonzero;fill:url(#radial0);" d="M 92.613281 112.136719 L 103.199219 112.136719 L 103.199219 106.84375 L 92.613281 106.84375 Z M 92.613281 112.136719 "/>
<path style=" stroke:none;fill-rule:nonzero;fill:url(#radial1);" d="M 31.753906 112.136719 L 21.167969 112.136719 L 21.167969 117.429688 L 31.753906 117.429688 Z M 31.753906 112.136719 "/>
<path style=" stroke:none;fill-rule:nonzero;fill:url(#radial2);" d="M 31.753906 112.136719 L 21.167969 112.136719 L 21.167969 106.84375 L 31.753906 106.84375 Z M 31.753906 112.136719 "/>
<path style=" stroke:none;fill-rule:nonzero;fill:url(#radial3);" d="M 92.613281 112.136719 L 103.199219 112.136719 L 103.199219 117.429688 L 92.613281 117.429688 Z M 92.613281 112.136719 "/>
<path style=" stroke:none;fill-rule:nonzero;fill:url(#linear1);" d="M 74.167969 11.585938 L 26.460938 11.585938 C 23.527344 11.585938 21.167969 13.945312 21.167969 16.875 L 21.167969 106.84375 C 21.167969 109.773438 23.527344 112.136719 26.460938 112.136719 L 97.90625 112.136719 C 100.835938 112.136719 103.199219 109.773438 103.199219 106.84375 L 103.199219 40.613281 Z M 74.167969 11.585938 "/>
<path style=" stroke:none;fill-rule:nonzero;fill:url(#linear2);" d="M 74.089844 36.722656 L 99.226562 36.722656 L 103.199219 40.691406 L 103.199219 45.984375 L 74.089844 45.984375 Z M 74.089844 36.722656 "/>
<path style=" stroke:none;fill-rule:nonzero;fill:rgb(0%,0%,0%);fill-opacity:0.235294;" d="M 21.167969 104.789062 L 21.167969 106.84375 C 21.167969 109.773438 23.527344 112.136719 26.460938 112.136719 L 97.90625 112.136719 C 100.835938 112.136719 103.199219 109.773438 103.199219 106.84375 L 103.199219 104.789062 C 103.199219 107.71875 100.835938 110.082031 97.90625 110.082031 L 26.460938 110.082031 C 23.527344 110.082031 21.167969 107.71875 21.167969 104.789062 Z M 21.167969 104.789062 "/>
<path style=" stroke:none;fill-rule:nonzero;fill:rgb(96.470588%,96.470588%,96.470588%);fill-opacity:0.588235;" d="M 26.460938 11.585938 C 23.527344 11.585938 21.167969 13.945312 21.167969 16.875 L 21.167969 18.859375 C 21.167969 15.929688 23.527344 13.570312 26.460938 13.570312 L 74.167969 13.570312 L 103.199219 42.597656 L 103.199219 40.613281 L 74.167969 11.585938 Z M 26.460938 11.585938 "/>
<path style=" stroke:none;fill-rule:nonzero;fill:url(#linear3);" d="M 103.199219 40.613281 L 74.167969 11.585938 L 74.167969 35.320312 C 74.167969 38.253906 76.527344 40.613281 79.460938 40.613281 Z M 103.199219 40.613281 "/>
<path style=" stroke:none;fill-rule:nonzero;fill:rgb(0%,0%,0%);fill-opacity:0.235294;" d="M 74.167969 34.074219 L 74.167969 35.320312 C 74.167969 38.253906 76.527344 40.613281 79.460938 40.613281 L 103.199219 40.613281 L 101.953125 39.367188 L 79.460938 39.367188 C 76.527344 39.367188 74.167969 37.007812 74.167969 34.074219 Z M 74.167969 34.074219 "/>
<path style=" stroke:none;fill-rule:nonzero;fill:rgb(100%,100%,100%);fill-opacity:0.392157;" d="M 74.167969 11.585938 L 74.167969 13.570312 L 101.210938 40.613281 L 103.199219 40.613281 Z M 74.167969 11.585938 "/>
<path style=" stroke:none;fill-rule:nonzero;fill:rgb(12.941177%,12.941177%,12.941177%);fill-opacity:1;" d="M 74.164062 11.210938 C 73.957031 11.210938 73.792969 11.378906 73.792969 11.585938 L 73.792969 35.320312 C 73.792969 38.453125 76.328125 40.988281 79.460938 40.988281 L 103.199219 40.988281 C 103.347656 40.988281 103.484375 40.898438 103.542969 40.757812 C 103.601562 40.617188 103.570312 40.457031 103.460938 40.347656 L 74.433594 11.320312 C 74.363281 11.246094 74.265625 11.207031 74.164062 11.210938 Z M 74.542969 12.488281 L 102.292969 40.238281 L 79.460938 40.238281 C 76.730469 40.238281 74.542969 38.050781 74.542969 35.320312 Z M 74.542969 12.488281 "/>
<path style=" stroke:none;fill-rule:nonzero;fill:rgb(12.941177%,12.941177%,12.941177%);fill-opacity:1;" d="M 26.460938 11.210938 C 23.328125 11.210938 20.792969 13.742188 20.792969 16.875 L 20.792969 106.84375 C 20.792969 109.976562 23.328125 112.511719 26.460938 112.511719 L 97.90625 112.511719 C 101.039062 112.511719 103.574219 109.976562 103.574219 106.84375 L 103.574219 40.613281 C 103.574219 40.515625 103.53125 40.417969 103.460938 40.347656 L 74.433594 11.320312 C 74.363281 11.25 74.269531 11.210938 74.167969 11.210938 Z M 26.460938 11.960938 L 74.011719 11.960938 L 102.824219 40.769531 L 102.824219 106.84375 C 102.824219 109.574219 100.636719 111.761719 97.90625 111.761719 L 26.460938 111.761719 C 23.730469 111.761719 21.542969 109.574219 21.542969 106.84375 L 21.542969 16.875 C 21.542969 14.144531 23.730469 11.960938 26.460938 11.960938 Z M 26.460938 11.960938 "/>
<path style="fill-rule:nonzero;fill:url(#linear4);stroke-width:11.338583;stroke-linecap:round;stroke-linejoin:round;stroke:rgb(12.941177%,12.941177%,12.941177%);stroke-opacity:1;stroke-miterlimit:4;" d="M 620.019564 695.130505 C 608.918261 695.130505 600.001789 704.046977 600.001789 715.08923 L 600.001789 1235.138021 C 600.001789 1246.180274 608.918261 1255.096746 620.019564 1255.096746 L 1259.997853 1255.096746 C 1271.099155 1255.096746 1280.015627 1246.180274 1280.015627 1235.138021 L 1280.015627 715.08923 C 1280.015627 704.046977 1271.099155 695.130505 1259.997853 695.130505 Z M 699.972563 775.142554 L 1179.985804 775.142554 C 1191.087107 775.142554 1200.003579 784.059026 1200.003579 795.101279 L 1200.003579 1155.125972 C 1200.003579 1166.168225 1189.079424 1181.462041 1179.985804 1175.143747 C 1142.78463 1149.280073 1119.99153 1115.090423 1080.015031 1115.090423 C 1033.484039 1115.090423 989.669323 1155.125972 940.008708 1155.125972 C 899.973159 1155.125972 880.014434 1035.137424 820.02016 1035.137424 C 760.025886 1035.137424 754.770482 1069.149926 699.972563 1175.143747 C 694.894307 1184.945961 680.013838 1166.168225 680.013838 1155.125972 L 680.013838 795.101279 C 680.013838 784.059026 688.93031 775.142554 699.972563 775.142554 Z M 1050.017894 835.136828 C 1011.222384 835.136828 979.985208 866.314954 979.985208 905.110464 C 979.985208 943.905974 1011.222384 975.14315 1050.017894 975.14315 C 1088.754354 975.14315 1119.99153 943.905974 1119.99153 905.110464 C 1119.99153 866.314954 1088.754354 835.136828 1050.017894 835.136828 Z M 1050.017894 835.136828 " transform="matrix(0.0661521,0,0,0.0661521,0,0)"/>
</g>
</svg>

<svg xmlns="http://www.w3.org/2000/svg" width="128pt" height="128pt" viewBox="0 0 128 128"><defs><linearGradient id="a" gradientUnits="userSpaceOnUse" x1="254" y1="233.5" x2="254" y2="254.667" gradientTransform="matrix(.25002 0 0 .25002 2.646 53.755)"><stop offset="0" stop-opacity=".275"/><stop offset="1" stop-opacity="0"/></linearGradient><radialGradient id="b" gradientUnits="userSpaceOnUse" cx="450.909" cy="189.579" fx="450.909" fy="189.579" r="21.167" gradientTransform="matrix(0 -.31253 -.56255 0 197.938 254.381)"><stop offset="0" stop-opacity=".314"/><stop offset=".222" stop-opacity=".275"/><stop offset="1" stop-opacity="0"/></radialGradient><radialGradient id="c" gradientUnits="userSpaceOnUse" cx="450.909" cy="189.579" fx="450.909" fy="189.579" r="21.167" gradientTransform="matrix(0 .31253 .56255 0 -73.572 -30.11)"><stop offset="0" stop-opacity=".314"/><stop offset=".222" stop-opacity=".275"/><stop offset="1" stop-opacity="0"/></radialGradient><radialGradient id="d" gradientUnits="userSpaceOnUse" cx="450.909" cy="189.579" fx="450.909" fy="189.579" r="21.167" gradientTransform="matrix(0 -.31253 .56255 0 -73.572 254.381)"><stop offset="0" stop-opacity=".314"/><stop offset=".222" stop-opacity=".275"/><stop offset="1" stop-opacity="0"/></radialGradient><radialGradient id="e" gradientUnits="userSpaceOnUse" cx="450.909" cy="189.579" fx="450.909" fy="189.579" r="21.167" gradientTransform="matrix(0 .31253 -.56255 0 197.938 -30.11)"><stop offset="0" stop-opacity=".314"/><stop offset=".222" stop-opacity=".275"/><stop offset="1" stop-opacity="0"/></radialGradient><linearGradient id="f" gradientUnits="userSpaceOnUse" x1="940" y1="1695.118" x2="940" y2="175.118" gradientTransform="scale(.06615)"><stop offset="0" stop-color="#bcaaa4"/><stop offset="1" stop-color="#d7ccc8"/></linearGradient><linearGradient id="g" gradientUnits="userSpaceOnUse" x1="249.189" y1="233.5" x2="249.189" y2="254.667" gradientTransform="matrix(.11958 0 0 .43754 60.17 -65.444)"><stop offset="0" stop-opacity=".275"/><stop offset="1" stop-opacity="0"/></linearGradient><linearGradient id="h" gradientUnits="userSpaceOnUse" x1="338.667" y1="233.5" x2="338.667" y2="-168.667" gradientTransform="matrix(.25002 0 0 .25002 0 53.755)"><stop offset="0" stop-color="#8d6e63"/><stop offset="1" stop-color="#a1887f"/></linearGradient><linearGradient id="i" gradientUnits="userSpaceOnUse" x1="940" y1="1695.118" x2="940" y2="175.118"><stop offset="0" stop-color="#8d6e63"/><stop offset="1" stop-color="#a1887f"/></linearGradient></defs><path d="M31.754 112.137h60.86v5.293h-60.86zm0 0" fill="url(#a)"/><path d="M92.613 112.137H103.2v-5.293H92.613zm0 0" fill="url(#b)"/><path d="M31.754 112.137H21.168v5.293h10.586zm0 0" fill="url(#c)"/><path d="M31.754 112.137H21.168v-5.293h10.586zm0 0" fill="url(#d)"/><path d="M92.613 112.137H103.2v5.293H92.613zm0 0" fill="url(#e)"/><path d="M74.168 11.586H26.461a5.279 5.279 0 0 0-5.293 5.289v89.969c0 2.93 2.36 5.293 5.293 5.293h71.445a5.285 5.285 0 0 0 5.293-5.293v-66.23zm0 0" fill="url(#f)"/><path d="M74.09 36.723h25.137l3.972 3.968v5.293H74.09zm0 0" fill="url(#g)"/><path d="M21.168 104.79v2.054c0 2.93 2.36 5.293 5.293 5.293h71.445a5.285 5.285 0 0 0 5.293-5.293v-2.055a5.285 5.285 0 0 1-5.293 5.293H26.461a5.282 5.282 0 0 1-5.293-5.293zm0 0" fill-opacity=".235"/><path d="M26.46 11.586a5.279 5.279 0 0 0-5.292 5.289v1.984c0-2.93 2.36-5.289 5.293-5.289h47.707l29.031 29.028v-1.985L74.168 11.586zm0 0" fill="#f6f6f6" fill-opacity=".588"/><path d="M103.2 40.613L74.167 11.586V35.32a5.28 5.28 0 0 0 5.293 5.293zm0 0" fill="url(#h)"/><path d="M74.168 34.074v1.246a5.28 5.28 0 0 0 5.293 5.293h23.738l-1.246-1.246H79.461a5.28 5.28 0 0 1-5.293-5.293zm0 0" fill-opacity=".235"/><path d="M74.168 11.586v1.984l27.043 27.043h1.988zm0 0" fill="#fff" fill-opacity=".392"/><path d="M74.164 11.21a.372.372 0 0 0-.371.376V35.32a5.665 5.665 0 0 0 5.668 5.668h23.738a.373.373 0 0 0 .262-.64L74.434 11.32a.351.351 0 0 0-.27-.11zm.379 1.278l27.75 27.75H79.461a4.9 4.9 0 0 1-4.918-4.918zm0 0" fill="#212121"/><path d="M26.46 11.21a5.661 5.661 0 0 0-5.667 5.665v89.969a5.665 5.665 0 0 0 5.668 5.668h71.445a5.665 5.665 0 0 0 5.668-5.668v-66.23a.383.383 0 0 0-.113-.266L74.434 11.32a.372.372 0 0 0-.266-.11zm0 .75h47.552l28.812 28.81v66.074a4.9 4.9 0 0 1-4.918 4.918H26.461a4.9 4.9 0 0 1-4.918-4.918V16.875a4.896 4.896 0 0 1 4.918-4.914zm0 0" fill="#212121"/><path d="M620.02 695.13c-11.102 0-20.018 8.917-20.018 19.96v520.048c0 11.042 8.916 19.959 20.018 19.959h639.978c11.101 0 20.018-8.917 20.018-19.959V715.089c0-11.042-8.917-19.958-20.018-19.958zm79.953 80.013h480.013c11.101 0 20.018 8.916 20.018 19.958v360.025c0 11.042-10.925 26.336-20.018 20.018-37.201-25.864-59.994-60.054-99.971-60.054-46.531 0-90.346 40.036-140.006 40.036-40.036 0-59.995-119.989-119.989-119.989-59.994 0-65.25 34.013-120.047 140.007-5.079 9.802-19.96-8.976-19.96-20.018V795.101c0-11.042 8.917-19.958 19.96-19.958zm350.045 59.994c-38.796 0-70.033 31.178-70.033 69.973 0 38.796 31.237 70.033 70.033 70.033 38.736 0 69.974-31.237 69.974-70.033 0-38.795-31.238-69.973-69.974-69.973zm0 0" transform="scale(.06615)" fill="url(#i)" stroke-width="11.339" stroke-linecap="round" stroke-linejoin="round" stroke="#212121"/></svg>
